X: 51
T: Scotsbroome Jig
P: For my contra dance band
C: Mike Richardson
O: Seattle, Washington
%R: jig
Z: Collected and edited 2014 by John Chambers <jc:trillian.mit.edu>
B: GEMS The Best of the Country Dance and Song Society Diamond Jubilee Music, Dance and Song Contest 1993 p.76
M: 6/8
L: 1/8
K: D
% - - - - - - - - - - - - - - - - - - - - - - - - -
A |\
"D"d2e fed | "G"BGB "D"A2A | "D"d2e "Bm"fga | "Em"agf "A"e2=f | "D"^fed AFA | "G"BGB "D"A2A |
"D"d2d "A7"edc |[1 "D"d3- d2 :|[2 "D"d3 DFA |: "C"=c3 "G"B3 | "D"ABA F2D | "A"EFG GFE |
"D"DFA d2A | "G"B3 B3 | "D"ABA F2D | "A7"EFG GFE |[1 "D"D3 DFA :|[2 "D"D3- D2 |]
% - - - - - - - - - - - - - - - - - - - - - - - - -

